X: 978
T: Too Young To Marry
C:Traditional
B: jims roots
M:4/4
L:1/8
Q: 1/4=100
K:D
V:1 
%N:TablEdited by David A Berry
%Q:460
f2 g2 |: "D"a2 f2 gfeg | f2 d2 d2 fg | a2 f2 gfga | "G"b2 e2 "A"e2 fg |
"D"a2 f2 gfeg | fedf edBc | "A"dcdA Bcde |[1 "D"f2 d2 d2 fg:|
[2 "D"f2 d2 d2 (3ABc |: "D"d2 D2 F2 A2 | "G"d2 D2 D2 (3ABc | "D"d2 D2 F2 A2 |
"A"G2 E2 E2 (3ABc | "D"d2 D2 F2 A2 | "G"B2 g2 f2 e2 | "A"dcBA "A"Bcde |[1 "D"f2 d2 d2 (3ABc:|
[2 "D"f2 d2 d4||
% abcbook-tune_id 6298c2975123332e99c5e81c


% abcbook-boost 0
% abcbook-tablature 
% abcbook-transpose 
% abcbook-lastupdated 1654178456227
% abcbook-soundfonts 
% abcbook-repeats 1


